;FLAVOR:Marlin
;TIME:1040
;Filament used: 0.678716m
;Layer height: 0.2
;MINX:105.96
;MINY:125.96
;MINZ:0.2
;MAXX:194.04
;MAXY:174.04
;MAXZ:2
;Generated with Cura_SteamEngine 4.13.0
M140 S60
M105
M190 S60
M104 S200
M105
M109 S200
M82 ;absolute extrusion mode
G28 ; home all axes
 M117 Purge extruder
 G92 E0 ; reset extruder
 G1 Z1.0 F3000 ; move z up little to prevent scratching of surface
 G1 X2 Y20 Z0.3 F5000.0 ; move to start-line position
 G1 X2 Y200.0 Z0.3 F1500.0 E15 ; draw 1st line
 G1 X2 Y200.0 Z0.4 F5000.0 ; move to side a little
 G1 X2 Y20 Z0.4 F1500.0 E30 ; draw 2nd line
 G92 E0 ; reset extruder
 G1 Z1.0 F3000 ; move z up little to prevent scratching of surface
G92 E0
G92 E0
G1 F1500 E-2
;LAYER_COUNT:10
;LAYER:0
M107
G0 F6000 X109.856 Y128.872 Z0.2
;TYPE:SKIRT
G1 F1500 E0
G1 F1200 X110.601 Y128.265 E0.03516
G1 X111.393 Y127.723 E0.07027
G1 X112.229 Y127.248 E0.10545
G1 X113.1 Y126.844 E0.14058
G1 X114.003 Y126.515 E0.17574
G1 X114.929 Y126.261 E0.21087
G1 X115.874 Y126.085 E0.24604
G1 X117.186 Y125.974 E0.29421
G1 X117.507 Y125.965 E0.30596
G1 X117.83 Y125.96 E0.31778
G1 X141.973 Y125.961 E1.20108
G1 X142.678 Y125.972 E1.22687
G1 X143.637 Y126.027 E1.26202
G1 X144.588 Y126.162 E1.29716
G1 X145.525 Y126.375 E1.33231
G1 X146.441 Y126.665 E1.36747
G1 X147.373 Y127.051 E1.40437
G1 X149.781 Y128.14 E1.50106
G1 X152.109 Y129.115 E1.5934
G1 X154.495 Y130.037 E1.68699
G1 X156.775 Y130.84 E1.77543
G1 X159.201 Y131.621 E1.86867
G1 X161.553 Y132.306 E1.9583
G1 X164.02 Y132.948 E2.05156
G1 X166.45 Y133.509 E2.1428
G1 X168.919 Y134.006 E2.23495
G1 X171.348 Y134.421 E2.3251
G1 X173.836 Y134.776 E2.41705
G1 X176.327 Y135.06 E2.50878
G1 X178.826 Y135.274 E2.60054
G1 X181.317 Y135.416 E2.69183
G1 X181.804 Y135.43 E2.70965
G1 X182.981 Y135.48 E2.75275
G1 X183.938 Y135.561 E2.78789
G1 X184.885 Y135.721 E2.82303
G1 X185.816 Y135.959 E2.85818
G1 X186.723 Y136.274 E2.89331
G1 X187.602 Y136.663 E2.92848
G1 X188.444 Y137.124 E2.9636
G1 X189.246 Y137.654 E2.99877
G1 X190.001 Y138.248 E3.03392
G1 X190.704 Y138.903 E3.06907
G1 X191.349 Y139.614 E3.10419
G1 X191.934 Y140.376 E3.13934
G1 X192.453 Y141.185 E3.17451
G1 X192.903 Y142.033 E3.20963
G1 X193.281 Y142.917 E3.2448
G1 X193.584 Y143.828 E3.27993
G1 X193.81 Y144.762 E3.31509
G1 X193.958 Y145.711 E3.35023
G1 X194.026 Y146.686 E3.38598
G1 X194.035 Y147.006 E3.3977
G1 X194.04 Y147.33 E3.40955
G1 X194.039 Y152.407 E3.5953
G1 X194.03 Y153.134 E3.6219
G1 X193.978 Y154.093 E3.65704
G1 X193.847 Y155.045 E3.6922
G1 X193.637 Y155.982 E3.72733
G1 X193.349 Y156.899 E3.76249
G1 X192.987 Y157.788 E3.79761
G1 X192.551 Y158.645 E3.83279
G1 X192.046 Y159.462 E3.86793
G1 X191.475 Y160.234 E3.90306
G1 X190.841 Y160.956 E3.93821
G1 X190.15 Y161.623 E3.97335
G1 X189.406 Y162.23 E4.00848
G1 X188.613 Y162.773 E4.04364
G1 X187.778 Y163.248 E4.07879
G1 X186.907 Y163.653 E4.11393
G1 X186.005 Y163.983 E4.14907
G1 X185.079 Y164.237 E4.1842
G1 X184.134 Y164.413 E4.21937
G1 X182.819 Y164.526 E4.26766
G1 X182.629 Y164.531 E4.27461
G1 X180.05 Y164.643 E4.36906
G1 X177.576 Y164.821 E4.45981
G1 X175.044 Y165.074 E4.5529
G1 X172.6 Y165.39 E4.64307
G1 X170.086 Y165.786 E4.73618
G1 X167.648 Y166.242 E4.82692
G1 X165.194 Y166.773 E4.91878
G1 X162.815 Y167.357 E5.0084
G1 X160.372 Y168.032 E5.10113
G1 X157.975 Y168.769 E5.19288
G1 X155.584 Y169.578 E5.28523
G1 X153.269 Y170.435 E5.37554
G1 X150.924 Y171.379 E5.46803
G1 X148.615 Y172.386 E5.56019
G1 X147.253 Y173.003 E5.6149
G1 X146.362 Y173.363 E5.65006
G1 X144.991 Y173.756 E5.70223
G1 X144.046 Y173.925 E5.73736
G1 X142.814 Y174.026 E5.78258
G1 X142.496 Y174.035 E5.79422
G1 X142.17 Y174.04 E5.80615
G1 X118.058 Y174.039 E6.68832
G1 X117.36 Y174.03 E6.71385
G1 X116.401 Y173.978 E6.74899
G1 X115.449 Y173.846 E6.78416
G1 X114.512 Y173.635 E6.8193
G1 X113.596 Y173.347 E6.85443
G1 X112.706 Y172.984 E6.88959
G1 X111.85 Y172.548 E6.92474
G1 X111.033 Y172.043 E6.95988
G1 X110.261 Y171.471 E6.99503
G1 X109.54 Y170.837 E7.03016
G1 X108.873 Y170.146 E7.06529
G1 X108.266 Y169.401 E7.10045
G1 X107.724 Y168.608 E7.13559
G1 X107.249 Y167.773 E7.17074
G1 X106.845 Y166.901 E7.2059
G1 X106.515 Y165.999 E7.24104
G1 X106.261 Y165.073 E7.27617
G1 X106.086 Y164.128 E7.31133
G1 X105.973 Y162.803 E7.35999
G1 X105.964 Y162.47 E7.37217
G1 X105.96 Y162.158 E7.38359
G1 X105.961 Y138.047 E8.26572
G1 X105.97 Y137.358 E8.29093
G1 X106.022 Y136.399 E8.32607
G1 X106.155 Y135.448 E8.3612
G1 X106.365 Y134.51 E8.39637
G1 X106.653 Y133.594 E8.4315
G1 X107.017 Y132.705 E8.46664
G1 X107.453 Y131.849 E8.50179
G1 X107.958 Y131.032 E8.53693
G1 X108.53 Y130.26 E8.57208
G1 X109.164 Y129.538 E8.60723
G1 X109.856 Y128.872 E8.64237
G0 F6000 X110.284 Y129.082
G1 F1200 X111.025 Y128.5 E8.67685
G1 X111.812 Y127.982 E8.71132
G1 X112.641 Y127.533 E8.74581
G1 X113.504 Y127.157 E8.78025
G1 X114.397 Y126.854 E8.81475
G1 X115.311 Y126.629 E8.84919
G1 X116.242 Y126.482 E8.88367
G1 X117.198 Y126.413 E8.91874
G1 X117.519 Y126.404 E8.93049
G1 X117.83 Y126.4 E8.94187
G1 X141.793 Y126.4 E9.81858
G1 X142.671 Y126.412 E9.85071
G1 X143.612 Y126.467 E9.88519
G1 X144.544 Y126.601 E9.91964
G1 X145.462 Y126.814 E9.95412
G1 X146.358 Y127.104 E9.98858
G1 X147.187 Y127.45 E10.02144
G1 X149.612 Y128.547 E10.11882
G1 X151.962 Y129.531 E10.21203
G1 X154.319 Y130.441 E10.30447
G1 X156.634 Y131.257 E10.39427
G1 X159.06 Y132.038 E10.48751
G1 X161.459 Y132.736 E10.57892
G1 X163.917 Y133.376 E10.67185
G1 X166.337 Y133.935 E10.76272
G1 X168.831 Y134.437 E10.8558
G1 X171.314 Y134.861 E10.94796
G1 X173.762 Y135.211 E11.03843
G1 X176.273 Y135.497 E11.13089
G1 X178.8 Y135.713 E11.22368
G1 X181.279 Y135.854 E11.31453
G1 X181.785 Y135.87 E11.33305
G1 X182.962 Y135.92 E11.37615
G1 X183.901 Y136 E11.41063
G1 X184.829 Y136.159 E11.44507
G1 X185.741 Y136.396 E11.47955
G1 X186.629 Y136.71 E11.51401
G1 X187.488 Y137.098 E11.54849
G1 X188.31 Y137.558 E11.58296
G1 X189.091 Y138.085 E11.61743
G1 X189.824 Y138.677 E11.6519
G1 X190.504 Y139.329 E11.68636
G1 X191.127 Y140.036 E11.72084
G1 X191.687 Y140.794 E11.75532
G1 X192.181 Y141.596 E11.78978
G1 X192.605 Y142.437 E11.82424
G1 X192.957 Y143.311 E11.85871
G1 X193.233 Y144.212 E11.89319
G1 X193.431 Y145.133 E11.92765
G1 X193.551 Y146.067 E11.96211
G1 X193.587 Y146.698 E11.98523
G1 X193.596 Y147.018 E11.99694
G1 X193.6 Y147.33 E12.00836
G1 X193.599 Y152.401 E12.19389
G1 X193.59 Y153.128 E12.22049
G1 X193.539 Y154.069 E12.25496
G1 X193.407 Y155.002 E12.28944
G1 X193.197 Y155.921 E12.32393
G1 X192.91 Y156.818 E12.35839
G1 X192.548 Y157.688 E12.39286
G1 X192.114 Y158.524 E12.42732
G1 X191.61 Y159.32 E12.46179
G1 X191.041 Y160.07 E12.49623
G1 X190.409 Y160.77 E12.53074
G1 X189.721 Y161.413 E12.56519
G1 X188.981 Y161.996 E12.59966
G1 X188.194 Y162.514 E12.63413
G1 X187.366 Y162.963 E12.66859
G1 X186.503 Y163.341 E12.70306
G1 X185.611 Y163.644 E12.73753
G1 X184.696 Y163.87 E12.77201
G1 X183.766 Y164.018 E12.80646
G1 X182.807 Y164.087 E12.84164
G1 X182.597 Y164.093 E12.84932
G1 X179.998 Y164.205 E12.9445
G1 X177.537 Y164.382 E13.03477
G1 X175.016 Y164.635 E13.12747
G1 X172.512 Y164.958 E13.21984
G1 X170.037 Y165.348 E13.31151
G1 X167.547 Y165.814 E13.40419
G1 X165.103 Y166.342 E13.49567
G1 X162.699 Y166.933 E13.58624
G1 X160.233 Y167.614 E13.67984
G1 X157.844 Y168.349 E13.77129
G1 X155.46 Y169.155 E13.86336
G1 X153.09 Y170.032 E13.95581
G1 X150.765 Y170.968 E14.04751
G1 X148.429 Y171.988 E14.14077
G1 X147.072 Y172.603 E14.19527
G1 X146.197 Y172.954 E14.22977
G1 X144.896 Y173.327 E14.27928
G1 X143.968 Y173.492 E14.31377
G1 X142.802 Y173.587 E14.35657
G1 X142.484 Y173.596 E14.36821
G1 X142.17 Y173.6 E14.3797
G1 X118.064 Y173.599 E15.26164
G1 X117.366 Y173.59 E15.28718
G1 X116.425 Y173.538 E15.32166
G1 X115.492 Y173.406 E15.35614
G1 X114.574 Y173.196 E15.39059
G1 X113.677 Y172.908 E15.42506
G1 X112.807 Y172.546 E15.45953
G1 X111.971 Y172.111 E15.49401
G1 X111.176 Y171.607 E15.52845
G1 X110.425 Y171.037 E15.56294
G1 X109.726 Y170.405 E15.59742
G1 X109.083 Y169.717 E15.63187
G1 X108.501 Y168.976 E15.66635
G1 X107.983 Y168.189 E15.70082
G1 X107.534 Y167.361 E15.73528
G1 X107.157 Y166.497 E15.76977
G1 X106.855 Y165.605 E15.80422
G1 X106.629 Y164.691 E15.83867
G1 X106.482 Y163.76 E15.87315
G1 X106.413 Y162.791 E15.90869
G1 X106.404 Y162.458 E15.92088
G1 X106.4 Y162.158 E15.93186
G1 X106.401 Y138.053 E16.81377
G1 X106.41 Y137.364 E16.83898
G1 X106.462 Y136.423 E16.87346
G1 X106.594 Y135.49 E16.90793
G1 X106.805 Y134.572 E16.94239
G1 X107.092 Y133.675 E16.97685
G1 X107.455 Y132.805 E17.01134
G1 X107.89 Y131.97 E17.04579
G1 X108.394 Y131.174 E17.08026
G1 X108.964 Y130.424 E17.11472
G1 X109.596 Y129.725 E17.1492
G1 X110.284 Y129.082 E17.18365
G0 F6000 X110.712 Y129.297
G1 F1200 X111.448 Y128.74 E17.21742
G1 X112.23 Y128.248 E17.25122
G1 X113.051 Y127.826 E17.285
G1 X113.906 Y127.477 E17.31878
G1 X114.787 Y127.202 E17.35255
G1 X115.689 Y127.005 E17.38633
G1 X116.605 Y126.887 E17.42012
G1 X117.21 Y126.853 E17.44229
G1 X117.531 Y126.844 E17.45404
G1 X117.83 Y126.84 E17.46498
G1 X141.793 Y126.84 E18.34169
G1 X142.664 Y126.852 E18.37356
G1 X143.586 Y126.907 E18.40735
G1 X144.499 Y127.041 E18.44111
G1 X145.398 Y127.253 E18.47491
G1 X146.275 Y127.542 E18.50869
G1 X147.001 Y127.849 E18.53753
G1 X149.443 Y128.953 E18.63558
G1 X151.772 Y129.928 E18.72795
G1 X154.183 Y130.86 E18.82252
G1 X156.503 Y131.677 E18.91251
G1 X158.942 Y132.462 E19.00625
G1 X161.332 Y133.158 E19.09733
G1 X163.78 Y133.795 E19.18987
G1 X166.285 Y134.374 E19.28394
G1 X168.743 Y134.869 E19.37567
G1 X171.215 Y135.291 E19.46742
G1 X173.718 Y135.648 E19.55992
G1 X176.262 Y135.938 E19.6536
G1 X178.736 Y136.149 E19.74444
G1 X181.277 Y136.294 E19.83756
G1 X181.766 Y136.31 E19.85546
G1 X182.943 Y136.36 E19.89856
G1 X183.863 Y136.439 E19.93234
G1 X184.773 Y136.597 E19.96613
G1 X185.665 Y136.834 E19.9999
G1 X186.534 Y137.146 E20.03368
G1 X187.372 Y137.533 E20.06745
G1 X188.174 Y137.991 E20.10124
G1 X188.933 Y138.517 E20.13503
G1 X189.644 Y139.106 E20.16881
G1 X190.301 Y139.755 E20.20259
G1 X190.899 Y140.458 E20.23636
G1 X191.435 Y141.21 E20.27015
G1 X191.903 Y142.005 E20.3039
G1 X192.301 Y142.839 E20.33771
G1 X192.625 Y143.703 E20.37147
G1 X192.873 Y144.592 E20.40523
G1 X193.043 Y145.5 E20.43903
G1 X193.147 Y146.71 E20.48346
G1 X193.156 Y147.03 E20.49518
G1 X193.16 Y147.33 E20.50615
G1 X193.159 Y152.396 E20.6915
G1 X193.15 Y153.123 E20.7181
G1 X193.099 Y154.045 E20.75188
G1 X192.968 Y154.959 E20.78566
G1 X192.758 Y155.858 E20.81944
G1 X192.472 Y156.736 E20.85322
G1 X192.11 Y157.585 E20.88699
G1 X191.677 Y158.4 E20.92076
G1 X191.174 Y159.175 E20.95456
G1 X190.607 Y159.903 E20.98832
G1 X189.978 Y160.579 E21.0221
G1 X189.293 Y161.199 E21.0559
G1 X188.558 Y161.756 E21.08964
G1 X187.776 Y162.248 E21.12345
G1 X186.956 Y162.671 E21.1572
G1 X186.101 Y163.021 E21.191
G1 X185.22 Y163.296 E21.22477
G1 X184.318 Y163.493 E21.25855
G1 X183.402 Y163.612 E21.29234
G1 X182.794 Y163.647 E21.31463
G1 X182.566 Y163.653 E21.32297
G1 X179.981 Y163.765 E21.41763
G1 X177.501 Y163.944 E21.5086
G1 X174.945 Y164.2 E21.60259
G1 X172.459 Y164.52 E21.69429
G1 X169.96 Y164.914 E21.78685
G1 X167.479 Y165.378 E21.87919
G1 X165.011 Y165.912 E21.97158
G1 X162.584 Y166.508 E22.06301
G1 X160.126 Y167.188 E22.15631
G1 X157.681 Y167.939 E22.24989
G1 X155.306 Y168.742 E22.34162
G1 X152.955 Y169.612 E22.43333
G1 X150.594 Y170.563 E22.52645
G1 X148.242 Y171.589 E22.62034
G1 X146.89 Y172.202 E22.67465
G1 X146.033 Y172.545 E22.70842
G1 X144.8 Y172.897 E22.75533
G1 X143.891 Y173.058 E22.78911
G1 X142.79 Y173.147 E22.82952
G1 X142.472 Y173.156 E22.84116
G1 X142.17 Y173.16 E22.85221
G1 X118.07 Y173.159 E23.73394
G1 X117.372 Y173.15 E23.75947
G1 X116.45 Y173.098 E23.79326
G1 X115.536 Y172.967 E23.82704
G1 X114.637 Y172.757 E23.86082
G1 X113.759 Y172.47 E23.89461
G1 X112.91 Y172.108 E23.92838
G1 X112.095 Y171.674 E23.96216
G1 X111.321 Y171.171 E23.99594
G1 X110.593 Y170.603 E24.02972
G1 X109.917 Y169.974 E24.0635
G1 X109.298 Y169.289 E24.09728
G1 X108.741 Y168.553 E24.13105
G1 X108.249 Y167.772 E24.16482
G1 X107.827 Y166.951 E24.19859
G1 X107.477 Y166.096 E24.23239
G1 X107.203 Y165.215 E24.26615
G1 X107.006 Y164.313 E24.29993
G1 X106.888 Y163.397 E24.33372
G1 X106.853 Y162.779 E24.35636
G1 X106.844 Y162.446 E24.36855
G1 X106.84 Y162.158 E24.37909
G1 X106.841 Y138.059 E25.26078
G1 X106.85 Y137.37 E25.28599
G1 X106.902 Y136.448 E25.31977
G1 X107.034 Y135.534 E25.35356
G1 X107.244 Y134.635 E25.38734
G1 X107.531 Y133.758 E25.4211
G1 X107.893 Y132.908 E25.4549
G1 X108.327 Y132.094 E25.48865
G1 X108.83 Y131.319 E25.52245
G1 X109.398 Y130.592 E25.5562
G1 X110.027 Y129.916 E25.58999
G1 X110.712 Y129.297 E25.62377
G0 F6000 X110.458 Y130.111
G1 F1200 X111.139 Y129.517 E25.65683
G1 X111.87 Y128.985 E25.6899
G1 X112.646 Y128.52 E25.723
G1 X113.459 Y128.126 E25.75605
G1 X114.304 Y127.805 E25.78913
G1 X115.174 Y127.559 E25.8222
G1 X116.062 Y127.392 E25.85526
G1 X117.223 Y127.293 E25.89789
G1 X117.544 Y127.284 E25.90964
G1 X117.83 Y127.28 E25.92011
G1 X141.793 Y127.28 E26.79682
G1 X142.657 Y127.292 E26.82843
G1 X143.56 Y127.346 E26.86153
G1 X144.454 Y127.48 E26.8946
G1 X145.333 Y127.692 E26.92768
G1 X146.189 Y127.981 E26.96074
G1 X146.816 Y128.248 E26.98567
G1 X149.274 Y129.359 E27.08436
G1 X151.625 Y130.344 E27.17762
G1 X154.007 Y131.264 E27.27104
G1 X156.372 Y132.097 E27.36278
G1 X158.791 Y132.876 E27.45575
G1 X161.237 Y133.588 E27.54896
G1 X163.677 Y134.223 E27.6412
G1 X166.172 Y134.8 E27.73489
G1 X168.682 Y135.305 E27.82857
G1 X171.156 Y135.727 E27.92039
G1 X173.673 Y136.087 E28.01341
G1 X176.173 Y136.371 E28.10547
G1 X178.745 Y136.591 E28.19991
G1 X181.239 Y136.734 E28.2913
G1 X181.748 Y136.749 E28.30993
G1 X182.925 Y136.799 E28.35304
G1 X183.825 Y136.877 E28.38609
G1 X184.716 Y137.035 E28.41919
G1 X185.588 Y137.271 E28.45224
G1 X186.437 Y137.582 E28.48532
G1 X187.254 Y137.968 E28.51838
G1 X188.035 Y138.424 E28.55147
G1 X188.772 Y138.948 E28.58456
G1 X189.46 Y139.534 E28.61762
G1 X190.093 Y140.179 E28.65068
G1 X190.667 Y140.878 E28.68377
G1 X191.177 Y141.624 E28.71684
G1 X191.619 Y142.413 E28.74992
G1 X191.989 Y143.237 E28.78297
G1 X192.285 Y144.092 E28.81607
G1 X192.505 Y144.968 E28.84912
G1 X192.646 Y145.861 E28.88219
G1 X192.707 Y146.723 E28.91381
G1 X192.716 Y147.043 E28.92552
G1 X192.72 Y147.33 E28.93602
G1 X192.719 Y152.391 E29.12119
G1 X192.71 Y153.118 E29.14779
G1 X192.659 Y154.02 E29.18084
G1 X192.528 Y154.915 E29.21393
G1 X192.319 Y155.794 E29.24699
G1 X192.033 Y156.651 E29.28004
G1 X191.672 Y157.48 E29.31312
G1 X191.24 Y158.274 E29.34619
G1 X190.738 Y159.027 E29.37931
G1 X190.173 Y159.732 E29.41236
G1 X189.547 Y160.384 E29.44543
G1 X188.866 Y160.979 E29.47851
G1 X188.135 Y161.511 E29.51159
G1 X187.361 Y161.976 E29.54463
G1 X186.547 Y162.371 E29.57773
G1 X185.703 Y162.693 E29.61078
G1 X184.833 Y162.939 E29.64386
G1 X183.945 Y163.107 E29.67692
G1 X182.782 Y163.207 E29.71963
G1 X182.533 Y163.214 E29.72874
G1 X180.002 Y163.323 E29.82143
G1 X177.424 Y163.509 E29.91599
G1 X174.917 Y163.76 E30.00817
G1 X172.407 Y164.084 E30.10076
G1 X169.877 Y164.482 E30.19447
G1 X167.378 Y164.95 E30.28748
G1 X164.92 Y165.481 E30.37949
G1 X162.46 Y166.086 E30.47217
G1 X159.986 Y166.77 E30.56608
G1 X157.56 Y167.515 E30.65893
G1 X155.162 Y168.326 E30.75154
G1 X152.808 Y169.198 E30.84339
G1 X150.406 Y170.165 E30.93812
G1 X148.108 Y171.166 E31.02983
G1 X147.936 Y171.246 E31.03677
G1 X146.709 Y171.801 E31.08604
G1 X145.87 Y172.136 E31.11909
G1 X144.705 Y172.468 E31.16341
G1 X143.815 Y172.625 E31.19647
G1 X142.777 Y172.707 E31.23457
G1 X142.459 Y172.716 E31.24621
G1 X142.17 Y172.72 E31.25678
G1 X118.075 Y172.719 E32.13832
G1 X117.377 Y172.71 E32.16386
G1 X116.475 Y172.659 E32.19692
G1 X115.58 Y172.527 E32.23002
G1 X114.701 Y172.318 E32.26307
G1 X113.844 Y172.031 E32.29614
G1 X113.015 Y171.67 E32.32922
G1 X112.221 Y171.237 E32.36231
G1 X111.469 Y170.735 E32.39539
G1 X110.764 Y170.169 E32.42846
G1 X110.112 Y169.543 E32.46153
G1 X109.518 Y168.862 E32.49459
G1 X108.986 Y168.131 E32.52767
G1 X108.521 Y167.356 E32.56074
G1 X108.126 Y166.543 E32.59381
G1 X107.805 Y165.698 E32.62688
G1 X107.56 Y164.828 E32.65995
G1 X107.392 Y163.939 E32.69305
