;FLAVOR:Marlin
;TIME:1181
;Filament used: 0.644125m
;Layer height: 0.2
;MINX:74
;MINY:94
;MINZ:0.2
;MAXX:161
;MAXY:141
;MAXZ:2
;Generated with Cura_SteamEngine 4.13.0
M140 S60
M105
M190 S60
M104 S205
M105
M109 S205
M82 ;absolute extrusion mode
; Ender 3 Custom Start G-code
G92 E0 ; Reset Extruder
G28 ; Home all axes
G29 L ; Auto bed level
G29 A ;
G29 J ;
G1 Z2.0 F3000 ; Move Z Axis up little to prevent scratching of Heat Bed
G1 X0.1 Y20 Z0.3 F5000.0 ; Move to start position
G1 X0.1 Y200.0 Z0.3 F1500.0 E15 ; Draw the first line
G1 X0.4 Y200.0 Z0.3 F5000.0 ; Move to side a little
G1 X0.4 Y20 Z0.3 F1500.0 E30 ; Draw the second line
G92 E0 ; Reset Extruder
G1 Z2.0 F3000 ; Move Z Axis up little to prevent scratching of Heat Bed
G1 X5 Y20 Z0.3 F5000.0 ; Move over to prevent blob squish
G92 E0
G92 E0
G1 F2700 E-5
;LAYER_COUNT:10
;LAYER:0
M107
G0 F6000 X77.882 Y96.63 Z0.2
;TYPE:SKIRT
G1 F2700 E0
G1 F1200 X78.621 Y96.054 E0.03116
G1 X79.407 Y95.542 E0.06236
G1 X80.234 Y95.099 E0.09357
G1 X81.096 Y94.729 E0.12477
G1 X81.986 Y94.433 E0.15596
G1 X82.898 Y94.214 E0.18716
G1 X83.825 Y94.073 E0.21834
G1 X84.701 Y94.013 E0.24755
G1 X85.022 Y94.004 E0.25823
G1 X85.33 Y94 E0.26847
G1 X109.293 Y94 E1.06549
G1 X110.17 Y94.012 E1.09466
G1 X111.106 Y94.067 E1.12584
G1 X112.034 Y94.201 E1.15703
G1 X112.948 Y94.414 E1.18824
G1 X113.84 Y94.704 E1.21944
G1 X114.645 Y95.041 E1.24847
G1 X117.106 Y96.154 E1.3383
G1 X119.387 Y97.109 E1.42055
G1 X121.781 Y98.034 E1.50591
G1 X124.112 Y98.855 E1.58811
G1 X126.534 Y99.634 E1.67273
G1 X128.938 Y100.334 E1.75601
G1 X131.376 Y100.969 E1.8398
G1 X133.821 Y101.534 E1.92326
G1 X136.328 Y102.038 E2.00832
G1 X138.788 Y102.458 E2.09132
G1 X141.271 Y102.813 E2.17474
G1 X143.756 Y103.096 E2.25793
G1 X146.285 Y103.312 E2.34235
G1 X148.77 Y103.454 E2.42514
G1 X149.281 Y103.47 E2.44214
G1 X150.458 Y103.52 E2.48132
G1 X151.392 Y103.6 E2.5125
G1 X152.317 Y103.759 E2.54372
G1 X153.224 Y103.996 E2.5749
G1 X154.108 Y104.309 E2.60609
G1 X154.962 Y104.697 E2.63729
G1 X155.78 Y105.156 E2.66849
G1 X156.555 Y105.683 E2.69966
G1 X157.283 Y106.275 E2.73087
G1 X157.958 Y106.926 E2.76206
G1 X158.576 Y107.632 E2.79326
G1 X159.13 Y108.388 E2.82444
G1 X159.618 Y109.189 E2.85563
G1 X160.037 Y110.029 E2.88685
G1 X160.382 Y110.901 E2.91804
G1 X160.652 Y111.799 E2.94923
G1 X160.844 Y112.717 E2.98043
G1 X160.957 Y113.648 E3.01162
G1 X160.987 Y114.201 E3.03004
G1 X160.996 Y114.521 E3.04069
G1 X161 Y114.83 E3.05096
G1 X160.999 Y119.9 E3.21959
G1 X160.99 Y120.627 E3.24378
G1 X160.939 Y121.564 E3.27499
G1 X160.807 Y122.492 E3.30616
G1 X160.598 Y123.406 E3.33735
G1 X160.311 Y124.299 E3.36854
G1 X159.949 Y125.165 E3.39976
G1 X159.515 Y125.996 E3.43094
G1 X159.011 Y126.787 E3.46214
G1 X158.442 Y127.532 E3.49332
G1 X157.811 Y128.227 E3.52454
G1 X157.124 Y128.865 E3.55572
G1 X156.385 Y129.442 E3.58691
G1 X155.599 Y129.954 E3.61811
G1 X154.773 Y130.397 E3.64928
G1 X153.911 Y130.769 E3.68051
G1 X153.022 Y131.065 E3.71167
G1 X152.11 Y131.285 E3.74288
G1 X151.183 Y131.426 E3.77406
G1 X150.304 Y131.487 E3.80337
G1 X150.088 Y131.493 E3.81056
G1 X147.523 Y131.604 E3.89595
G1 X144.984 Y131.787 E3.98061
G1 X142.527 Y132.033 E4.06274
G1 X139.983 Y132.361 E4.14806
G1 X137.502 Y132.752 E4.23159
G1 X135.047 Y133.211 E4.31466
G1 X132.59 Y133.742 E4.39827
G1 X130.181 Y134.334 E4.48078
G1 X127.708 Y135.018 E4.56612
G1 X125.292 Y135.76 E4.65018
G1 X122.925 Y136.561 E4.73329
G1 X120.561 Y137.436 E4.81713
G1 X118.219 Y138.379 E4.9011
G1 X115.886 Y139.397 E4.98576
G1 X114.53 Y140.011 E5.03527
G1 X113.66 Y140.361 E5.06646
G1 X112.374 Y140.729 E5.11095
G1 X111.451 Y140.893 E5.14213
G1 X110.299 Y140.987 E5.18058
G1 X109.981 Y140.996 E5.19116
G1 X109.67 Y141 E5.2015
G1 X85.565 Y140.999 E6.00324
G1 X84.867 Y140.99 E6.02645
G1 X83.931 Y140.938 E6.05763
G1 X83.002 Y140.806 E6.08884
G1 X82.088 Y140.596 E6.12004
G1 X81.195 Y140.309 E6.15123
G1 X80.33 Y139.946 E6.18243
G1 X79.499 Y139.512 E6.21362
G1 X78.708 Y139.008 E6.24481
G1 X77.963 Y138.438 E6.27601
G1 X77.269 Y137.807 E6.30721
G1 X76.632 Y137.12 E6.33837
G1 X76.055 Y136.38 E6.36958
G1 X75.543 Y135.594 E6.40078
G1 X75.1 Y134.767 E6.43198
G1 X74.729 Y133.906 E6.46316
G1 X74.433 Y133.016 E6.49436
G1 X74.214 Y132.104 E6.52556
G1 X74.073 Y131.177 E6.55674
G1 X74.013 Y130.288 E6.58638
G1 X74.004 Y129.955 E6.59746
G1 X74 Y129.658 E6.60734
G1 X74.001 Y105.554 E7.40904
G1 X74.01 Y104.865 E7.43196
G1 X74.062 Y103.929 E7.46314
G1 X74.194 Y103 E7.49435
G1 X74.404 Y102.086 E7.52554
G1 X74.692 Y101.194 E7.55671
G1 X75.054 Y100.329 E7.5879
G1 X75.489 Y99.498 E7.6191
G1 X75.993 Y98.707 E7.65029
G1 X76.563 Y97.962 E7.68149
G1 X77.194 Y97.268 E7.71269
G1 X77.882 Y96.63 E7.7439
G0 F6000 X78.271 Y96.827
G1 F1200 X79.006 Y96.273 E7.77451
G1 X79.787 Y95.785 E7.80514
G1 X80.607 Y95.366 E7.83577
G1 X81.46 Y95.021 E7.86637
G1 X82.34 Y94.75 E7.897
G1 X83.24 Y94.558 E7.9276
G1 X84.154 Y94.444 E7.95824
G1 X84.712 Y94.413 E7.97683
G1 X85.033 Y94.404 E7.98751
G1 X85.33 Y94.4 E7.99739
G1 X109.293 Y94.4 E8.7944
G1 X110.163 Y94.412 E8.82334
G1 X111.082 Y94.467 E8.85396
G1 X111.993 Y94.6 E8.88458
G1 X112.889 Y94.813 E8.91521
G1 X113.763 Y95.102 E8.94583
G1 X114.476 Y95.403 E8.97157
G1 X114.594 Y95.458 E8.9759
G1 X116.892 Y96.497 E9.05978
G1 X119.268 Y97.491 E9.14545
G1 X121.641 Y98.408 E9.23006
G1 X124.005 Y99.241 E9.31342
G1 X126.395 Y100.01 E9.39693
G1 X128.84 Y100.722 E9.48163
G1 X131.291 Y101.36 E9.56587
G1 X133.724 Y101.922 E9.64892
G1 X136.253 Y102.431 E9.73472
G1 X138.735 Y102.855 E9.81847
G1 X141.201 Y103.207 E9.90132
G1 X143.749 Y103.497 E9.98661
G1 X146.229 Y103.709 E10.0694
G1 X148.77 Y103.854 E10.15405
G1 X149.264 Y103.87 E10.17049
G1 X150.441 Y103.92 E10.20967
G1 X151.358 Y103.999 E10.24028
G1 X152.265 Y104.157 E10.27091
G1 X153.155 Y104.393 E10.30153
G1 X154.021 Y104.706 E10.33216
G1 X154.856 Y105.093 E10.36277
G1 X155.655 Y105.55 E10.39338
G1 X156.411 Y106.076 E10.42401
G1 X157.119 Y106.664 E10.45462
G1 X157.773 Y107.313 E10.48527
G1 X158.368 Y108.015 E10.51588
G1 X158.9 Y108.766 E10.54649
G1 X159.365 Y109.561 E10.57712
G1 X159.759 Y110.393 E10.60774
G1 X160.079 Y111.256 E10.63835
G1 X160.324 Y112.144 E10.66899
G1 X160.49 Y113.049 E10.69959
G1 X160.587 Y114.212 E10.73841
G1 X160.596 Y114.532 E10.74906
G1 X160.6 Y114.83 E10.75897
G1 X160.599 Y119.895 E10.92743
G1 X160.59 Y120.622 E10.95161
G1 X160.539 Y121.541 E10.98223
G1 X160.408 Y122.453 E11.01287
G1 X160.198 Y123.349 E11.04348
G1 X159.912 Y124.224 E11.0741
G1 X159.551 Y125.071 E11.10472
G1 X159.117 Y125.883 E11.13534
G1 X158.615 Y126.655 E11.16597
G1 X158.047 Y127.38 E11.1966
G1 X157.419 Y128.053 E11.22722
G1 X156.735 Y128.669 E11.25784
G1 X156 Y129.223 E11.28845
G1 X155.22 Y129.712 E11.31907
G1 X154.4 Y130.131 E11.34969
G1 X153.547 Y130.477 E11.38031
G1 X152.667 Y130.748 E11.41094
G1 X151.767 Y130.941 E11.44155
G1 X150.853 Y131.056 E11.47219
G1 X150.293 Y131.087 E11.49084
G1 X150.059 Y131.094 E11.49863
G1 X147.51 Y131.204 E11.58349
G1 X144.955 Y131.388 E11.66869
G1 X142.469 Y131.637 E11.75179
G1 X139.941 Y131.963 E11.83657
G1 X137.438 Y132.357 E11.92084
G1 X134.961 Y132.82 E12.00465
G1 X132.516 Y133.349 E12.08786
G1 X130.052 Y133.955 E12.17225
G1 X127.59 Y134.635 E12.2572
G1 X125.185 Y135.375 E12.3409
G1 X122.806 Y136.179 E12.42442
G1 X120.41 Y137.066 E12.50939
G1 X118.076 Y138.005 E12.59307
G1 X115.717 Y139.035 E12.67868
G1 X114.366 Y139.647 E12.72801
G1 X113.511 Y139.99 E12.75865
G1 X112.287 Y140.339 E12.80099
G1 X111.381 Y140.499 E12.83159
G1 X110.288 Y140.587 E12.86806
G1 X109.97 Y140.596 E12.87864
G1 X109.67 Y140.6 E12.88862
G1 X85.57 Y140.599 E13.69019
G1 X84.872 Y140.59 E13.7134
G1 X83.953 Y140.538 E13.74402
G1 X83.042 Y140.407 E13.77463
G1 X82.146 Y140.197 E13.80524
G1 X81.271 Y139.91 E13.83587
G1 X80.424 Y139.548 E13.8665
G1 X79.612 Y139.114 E13.89713
G1 X78.841 Y138.612 E13.92773
G1 X78.116 Y138.044 E13.95836
G1 X77.443 Y137.415 E13.989
G1 X76.828 Y136.731 E14.01959
G1 X76.274 Y135.996 E14.05021
G1 X75.786 Y135.215 E14.08084
G1 X75.367 Y134.395 E14.11146
G1 X75.021 Y133.542 E14.14208
G1 X74.751 Y132.662 E14.17269
G1 X74.558 Y131.761 E14.20334
G1 X74.444 Y130.848 E14.23394
G1 X74.413 Y130.277 E14.25296
G1 X74.404 Y129.944 E14.26404
G1 X74.4 Y129.658 E14.27356
G1 X74.401 Y105.56 E15.07506
G1 X74.41 Y104.871 E15.09798
G1 X74.462 Y103.951 E15.12863
G1 X74.593 Y103.04 E15.15924
G1 X74.804 Y102.144 E15.18985
G1 X75.091 Y101.269 E15.22048
G1 X75.453 Y100.423 E15.25109
G1 X75.887 Y99.611 E15.28171
G1 X76.389 Y98.839 E15.31234
G1 X76.957 Y98.115 E15.34294
G1 X77.586 Y97.442 E15.37358
G1 X78.271 Y96.827 E15.4042
G0 F6000 X78.659 Y97.027
G1 F1200 X79.39 Y96.497 E15.43423
G1 X80.164 Y96.033 E15.46425
G1 X80.977 Y95.64 E15.49428
G1 X81.822 Y95.32 E15.52433
G1 X82.692 Y95.076 E15.55439
G1 X83.579 Y94.91 E15.5844
G1 X84.723 Y94.813 E15.62259
G1 X85.044 Y94.804 E15.63327
G1 X85.33 Y94.8 E15.64278
G1 X109.293 Y94.8 E16.43979
G1 X110.157 Y94.812 E16.46853
G1 X111.059 Y94.866 E16.49859
G1 X111.952 Y95 E16.52862
G1 X112.83 Y95.212 E16.55866
G1 X113.685 Y95.501 E16.58868
G1 X114.307 Y95.766 E16.61117
G1 X116.752 Y96.872 E16.70042
G1 X119.105 Y97.857 E16.78526
G1 X121.5 Y98.782 E16.87066
G1 X123.887 Y99.623 E16.95483
G1 X126.276 Y100.392 E17.03831
G1 X128.732 Y101.107 E17.12338
G1 X131.206 Y101.751 E17.20841
G1 X133.66 Y102.318 E17.29218
G1 X136.172 Y102.824 E17.37741
G1 X138.653 Y103.247 E17.46112
G1 X141.131 Y103.601 E17.54437
G1 X143.706 Y103.894 E17.63057
G1 X146.241 Y104.111 E17.71519
G1 X148.738 Y104.254 E17.79838
G1 X149.247 Y104.269 E17.81532
G1 X150.424 Y104.319 E17.8545
G1 X151.324 Y104.397 E17.88455
G1 X152.213 Y104.555 E17.91458
G1 X153.085 Y104.79 E17.94462
G1 X153.932 Y105.102 E17.97464
G1 X154.749 Y105.488 E18.00469
G1 X155.528 Y105.944 E18.03471
G1 X156.264 Y106.467 E18.06474
G1 X156.951 Y107.054 E18.0948
G1 X157.583 Y107.699 E18.12483
G1 X158.156 Y108.397 E18.15487
G1 X158.665 Y109.143 E18.18491
G1 X159.106 Y109.931 E18.21494
G1 X159.475 Y110.756 E18.245
G1 X159.77 Y111.609 E18.27502
G1 X159.988 Y112.485 E18.30504
G1 X160.128 Y113.378 E18.33511
G1 X160.187 Y114.223 E18.36328
G1 X160.196 Y114.543 E18.37393
G1 X160.2 Y114.83 E18.38348
G1 X160.199 Y119.89 E18.55177
G1 X160.19 Y120.617 E18.57595
G1 X160.139 Y121.519 E18.606
G1 X160.008 Y122.413 E18.63606
G1 X159.799 Y123.291 E18.66607
G1 X159.513 Y124.148 E18.69612
G1 X159.152 Y124.976 E18.72617
G1 X158.72 Y125.768 E18.75617
G1 X158.219 Y126.52 E18.78623
G1 X157.653 Y127.224 E18.81627
G1 X157.028 Y127.875 E18.84629
G1 X156.347 Y128.469 E18.87634
G1 X155.616 Y129 E18.90639
G1 X154.842 Y129.464 E18.93641
G1 X154.029 Y129.858 E18.96646
G1 X153.185 Y130.178 E18.99648
G1 X152.315 Y130.423 E19.02654
G1 X151.428 Y130.589 E19.05655
G1 X150.281 Y130.687 E19.09484
G1 X150.1 Y130.692 E19.10086
G1 X147.464 Y130.806 E19.18862
G1 X144.922 Y130.989 E19.27339
G1 X142.415 Y131.24 E19.35719
G1 X139.9 Y131.565 E19.44153
G1 X137.368 Y131.963 E19.52678
G1 X134.908 Y132.423 E19.61002
G1 X132.374 Y132.972 E19.69625
G1 X129.955 Y133.566 E19.7791
G1 X127.503 Y134.244 E19.86371
G1 X125.054 Y134.996 E19.94892
G1 X122.676 Y135.801 E20.03242
G1 X120.258 Y136.696 E20.11818
G1 X117.928 Y137.634 E20.20172
G1 X115.547 Y138.673 E20.28812
G1 X114.201 Y139.283 E20.33727
G1 X113.362 Y139.618 E20.36732
G1 X112.201 Y139.948 E20.40747
G1 X111.311 Y140.105 E20.43752
G1 X110.277 Y140.187 E20.47202
G1 X109.959 Y140.196 E20.4826
G1 X109.67 Y140.2 E20.49222
G1 X85.575 Y140.199 E21.29362
G1 X84.877 Y140.19 E21.31684
G1 X83.976 Y140.139 E21.34685
G1 X83.082 Y140.007 E21.37691
G1 X82.204 Y139.798 E21.40693
G1 X81.347 Y139.511 E21.43699
G1 X80.52 Y139.15 E21.467
G1 X79.727 Y138.717 E21.49705
G1 X78.976 Y138.216 E21.52708
G1 X78.272 Y137.65 E21.55712
G1 X77.621 Y137.024 E21.58716
G1 X77.028 Y136.343 E21.6172
G1 X76.498 Y135.612 E21.64723
G1 X76.034 Y134.837 E21.67727
G1 X75.64 Y134.024 E21.70732
G1 X75.32 Y133.18 E21.73734
G1 X75.076 Y132.31 E21.76739
G1 X74.91 Y131.422 E21.79744
G1 X74.813 Y130.267 E21.83599
G1 X74.804 Y129.934 E21.84707
G1 X74.8 Y129.658 E21.85625
G1 X74.801 Y105.565 E22.65759
G1 X74.81 Y104.876 E22.6805
G1 X74.862 Y103.974 E22.71056
G1 X74.993 Y103.081 E22.74057
G1 X75.203 Y102.202 E22.77063
G1 X75.489 Y101.346 E22.80065
G1 X75.851 Y100.518 E22.83071
G1 X76.284 Y99.726 E22.86073
G1 X76.785 Y98.975 E22.89076
G1 X77.351 Y98.271 E22.9208
G1 X77.977 Y97.62 E22.95084
G1 X78.659 Y97.027 E22.9809
G1 F2700 E17.9809
;MESH:CamBracket.stl
G0 F6000 X100.681 Y108.913
G0 X99.263 Y108.535
G0 X99.75 Y109.721
G0 X99.979 Y110.021
G0 X101 Y110.605
;TYPE:WALL-INNER
G1 F2700 E22.9809
G1 F1200 X101.415 Y110.551 E22.99482
G1 X101.803 Y110.39 E23.00879
G1 X102.135 Y110.135 E23.02271
G1 X102.39 Y109.803 E23.03664
G1 X102.551 Y109.415 E23.05061
G1 X102.605 Y109 E23.06453
G1 X102.551 Y108.585 E23.07845
G1 X102.39 Y108.197 E23.09242
G1 X102.135 Y107.865 E23.10634
G1 X101.803 Y107.61 E23.12027
G1 X101.415 Y107.449 E23.13424
G1 X101 Y107.395 E23.14816
G1 X100.585 Y107.449 E23.16208
G1 X100.197 Y107.61 E23.17605
G1 X99.865 Y107.865 E23.18997
G1 X99.61 Y108.197 E23.20389
G1 X99.449 Y108.585 E23.21787
G1 X99.395 Y109 E23.23179
G1 X99.449 Y109.415 E23.24571
G1 X99.61 Y109.803 E23.25968
G1 X99.865 Y110.135 E23.2736
G1 X100.197 Y110.39 E23.28752
G1 X100.585 Y110.551 E23.3015
G1 X101 Y110.605 E23.31542
G0 F6000 X101 Y110.202
;TYPE:WALL-OUTER
G1 F1200 X101.311 Y110.161 E23.32585
G1 X101.601 Y110.041 E23.33629
G1 X101.85 Y109.85 E23.34673
G1 X102.041 Y109.601 E23.35716
G1 X102.161 Y109.311 E23.3676
G1 X102.202 Y109 E23.37803
G1 X102.161 Y108.689 E23.38847
G1 X102.041 Y108.399 E23.39891
G1 X101.85 Y108.15 E23.40934
G1 X101.601 Y107.959 E23.41978
G1 X101.311 Y107.839 E23.43022
G1 X101 Y107.798 E23.44065
G1 X100.689 Y107.839 E23.45109
G1 X100.399 Y107.959 E23.46153
G1 X100.15 Y108.15 E23.47196
G1 X99.959 Y108.399 E23.4824
G1 X99.839 Y108.689 E23.49284
G1 X99.798 Y109 E23.50327
G1 X99.839 Y109.311 E23.51371
G1 X99.959 Y109.601 E23.52415
G1 X100.15 Y109.85 E23.53458
G1 X100.399 Y110.041 E23.54502
G1 X100.689 Y110.161 E23.55546
G1 X101 Y110.202 E23.56589
G0 F6000 X101 Y110.642
G1 F2700 E18.56589
G0 F6000 X99.729 Y110.271
G0 X100.766 Y109.232
G0 X89.234 Y109.232
G0 X90.271 Y110.271
G0 X89.415 Y110.551
;TYPE:WALL-INNER
G1 F2700 E23.56589
G1 F1200 X89.803 Y110.39 E23.57986
G1 X90.135 Y110.135 E23.59379
G1 X90.39 Y109.803 E23.60771
G1 X90.551 Y109.415 E23.62168
G1 X90.605 Y109 E23.6356
G1 X90.551 Y108.585 E23.64952
G1 X90.39 Y108.197 E23.66349
G1 X90.135 Y107.865 E23.67742
G1 X89.803 Y107.61 E23.69134
G1 X89.415 Y107.449 E23.70531
G1 X89 Y107.395 E23.71923
G1 X88.585 Y107.449 E23.73315
G1 X88.197 Y107.61 E23.74712
G1 X87.865 Y107.865 E23.76105
G1 X87.61 Y108.197 E23.77497
G1 X87.449 Y108.585 E23.78894
G1 X87.395 Y109 E23.80286
G1 X87.449 Y109.415 E23.81678
G1 X87.61 Y109.803 E23.83075
G1 X87.865 Y110.135 E23.84468
G1 X88.197 Y110.39 E23.8586
G1 X88.585 Y110.551 E23.87257
G1 X89 Y110.605 E23.88649
G1 X89.415 Y110.551 E23.90041
G0 F6000 X89.311 Y110.161
;TYPE:WALL-OUTER
G1 F1200 X89.601 Y110.041 E23.91085
G1 X89.85 Y109.85 E23.92129
G1 X90.041 Y109.601 E23.93172
G1 X90.161 Y109.311 E23.94216
G1 X90.202 Y109 E23.9526
G1 X90.161 Y108.689 E23.96303
G1 X90.041 Y108.399 E23.97347
G1 X89.85 Y108.15 E23.98391
G1 X89.601 Y107.959 E23.99434
G1 X89.311 Y107.839 E24.00478
G1 X89 Y107.798 E24.01522
G1 X88.689 Y107.839 E24.02565
G1 X88.399 Y107.959 E24.03609
G1 X88.15 Y108.15 E24.04653
G1 X87.959 Y108.399 E24.05696
G1 X87.839 Y108.689 E24.0674
G1 X87.798 Y109 E24.07784
G1 X87.839 Y109.311 E24.08827
G1 X87.959 Y109.601 E24.09871
G1 X88.15 Y109.85 E24.10914
G1 X88.399 Y110.041 E24.11958
G1 X88.689 Y110.161 E24.13002
G1 X89 Y110.202 E24.14045
G1 X89.311 Y110.161 E24.15089
G0 F6000 X89.424 Y110.586
G1 F2700 E19.15089
G0 F6000 X89 Y110.797
G0 X89 Y109.329
G0 X89 Y125.671
G0 X89 Y124.203
G0 X90.021 Y124.979
G0 X90.25 Y125.279
G0 X90.394 Y125.627
G0 X90.444 Y126
G0 X90.394 Y126.373
G0 X90.25 Y126.721
G0 X89.415 Y127.551
;TYPE:WALL-INNER
G1 F2700 E24.15089
G1 F1200 X89.803 Y127.39 E24.16486
G1 X90.135 Y127.135 E24.17878
G1 X90.39 Y126.803 E24.19271
G1 X90.551 Y126.415 E24.20668
G1 X90.605 Y126 E24.2206
