;FLAVOR:Marlin
;TIME:1068
;Filament used: 0.672983m
;Layer height: 0.15
;MINX:88.9
;MINY:88.9
;MINZ:0.2
;MAXX:161.1
;MAXY:121.1
;MAXZ:2
;Generated with Cura_SteamEngine 4.13.0
M82 ;absolute extrusion mode
G21 ; set units to millimeters
G90 ; use absolute positioning
M82 ; absolute extrusion mode
M104 S200 ; set extruder temp
M140 S60 ; set bed temp
M190 S60 ; wait for bed temp
M109 S200 ; wait for extruder temp
G28 W ; home all without mesh bed level
G80 ; mesh bed leveling
G92 E0.0 ; reset extruder distance position
G1 Y-3.0 F1000.0 ; go outside print area
G1 X60.0 E9.0 F1000.0 ; intro line
G1 X100.0 E21.5 F1000.0 ; intro line
G92 E0.0 ; reset extruder distance position
G92 E0
G92 E0
G1 F2100 E-0.8
;LAYER_COUNT:13
;LAYER:0
M107
G0 F3600 X89.896 Y90.033 Z0.2
;TYPE:SKIRT
G1 F2100 E0
G1 F1800 X90.293 Y89.672 E0.01785
G1 X90.739 Y89.374 E0.03569
G1 X91.224 Y89.146 E0.05351
G1 X91.738 Y88.992 E0.07136
G1 X92.408 Y88.91 E0.09381
G1 X92.83 Y88.9 E0.10785
G1 X116.849 Y88.9 E0.90672
G1 X117.554 Y88.911 E0.93018
G1 X118.088 Y88.96 E0.94801
G1 X118.609 Y89.087 E0.96585
G1 X119.098 Y89.285 E0.98339
G1 X121.631 Y90.43 E1.07585
G1 X124.159 Y91.488 E1.167
G1 X126.723 Y92.479 E1.25842
G1 X129.236 Y93.364 E1.34704
G1 X131.847 Y94.205 E1.43828
G1 X134.482 Y94.971 E1.52954
G1 X137.107 Y95.655 E1.61977
G1 X139.789 Y96.274 E1.71132
G1 X142.442 Y96.808 E1.80132
G1 X145.134 Y97.268 E1.89216
G1 X147.83 Y97.653 E1.98274
G1 X150.536 Y97.961 E2.07332
G1 X153.263 Y98.194 E2.16435
G1 X155.955 Y98.348 E2.25403
G1 X156.467 Y98.363 E2.27107
G1 X157.644 Y98.413 E2.31025
G1 X158.176 Y98.476 E2.32807
G1 X158.694 Y98.617 E2.34593
G1 X159.185 Y98.833 E2.36377
G1 X159.638 Y99.12 E2.3816
G1 X160.043 Y99.471 E2.39943
G1 X160.392 Y99.878 E2.41726
G1 X160.676 Y100.333 E2.4351
G1 X160.89 Y100.825 E2.45295
G1 X161.029 Y101.343 E2.47078
G1 X161.09 Y101.909 E2.48972
G1 X161.1 Y102.33 E2.50372
G1 X161.1 Y107.309 E2.66933
G1 X161.091 Y108.036 E2.69351
G1 X161.044 Y108.57 E2.71134
G1 X160.919 Y109.091 E2.72916
G1 X160.717 Y109.588 E2.747
G1 X160.444 Y110.05 E2.76485
G1 X160.106 Y110.466 E2.78268
G1 X159.709 Y110.827 E2.80053
G1 X159.263 Y111.125 E2.81837
G1 X158.778 Y111.353 E2.83619
G1 X158.264 Y111.507 E2.85404
G1 X157.593 Y111.59 E2.87652
G1 X157.332 Y111.597 E2.88521
G1 X154.588 Y111.716 E2.97656
G1 X151.862 Y111.912 E3.06746
G1 X149.148 Y112.184 E3.15818
G1 X146.461 Y112.531 E3.24829
G1 X143.78 Y112.953 E3.33856
G1 X141.08 Y113.458 E3.42992
G1 X138.403 Y114.037 E3.52102
G1 X135.795 Y114.678 E3.61034
G1 X133.138 Y115.412 E3.70202
G1 X130.524 Y116.216 E3.79299
G1 X127.963 Y117.082 E3.8829
G1 X125.404 Y118.029 E3.97366
G1 X122.861 Y119.053 E4.06484
G1 X120.373 Y120.138 E4.15511
G1 X118.981 Y120.769 E4.20595
G1 X118.269 Y121.005 E4.2309
G1 X117.59 Y121.09 E4.25366
G1 X117.17 Y121.1 E4.26763
G1 X93.161 Y121.1 E5.06617
G1 X92.463 Y121.091 E5.08939
G1 X91.928 Y121.044 E5.10725
G1 X91.407 Y120.918 E5.12508
G1 X90.91 Y120.716 E5.14292
G1 X90.449 Y120.443 E5.16074
G1 X90.033 Y120.104 E5.17859
G1 X89.672 Y119.708 E5.19641
G1 X89.374 Y119.262 E5.21425
G1 X89.146 Y118.776 E5.23211
G1 X88.993 Y118.262 E5.24995
G1 X88.91 Y117.588 E5.27253
G1 X88.9 Y117.158 E5.28684
G1 X88.9 Y93.151 E6.08531
G1 X88.909 Y92.462 E6.10823
G1 X88.956 Y91.928 E6.12606
G1 X89.082 Y91.406 E6.14392
G1 X89.284 Y90.91 E6.16174
G1 X89.557 Y90.448 E6.17958
G1 X89.896 Y90.033 E6.19741
G0 F3600 X90.288 Y90.205
G1 F1800 X90.679 Y89.884 E6.21423
G1 X91.115 Y89.628 E6.23105
G1 X91.586 Y89.445 E6.24786
G1 X92.08 Y89.338 E6.26467
G1 X92.74 Y89.301 E6.28665
G1 X116.843 Y89.3 E7.08832
G1 X117.548 Y89.311 E7.11177
G1 X118.051 Y89.359 E7.12858
G1 X118.541 Y89.486 E7.14542
G1 X118.934 Y89.65 E7.15958
G1 X121.462 Y90.792 E7.25184
G1 X124.009 Y91.859 E7.34369
G1 X126.583 Y92.853 E7.43546
G1 X129.118 Y93.746 E7.52485
G1 X131.728 Y94.586 E7.61605
G1 X134.375 Y95.357 E7.70775
G1 X137.021 Y96.046 E7.79869
G1 X139.691 Y96.663 E7.88983
G1 X142.394 Y97.206 E7.98153
G1 X145.047 Y97.66 E8.07105
G1 X147.8 Y98.053 E8.16355
G1 X150.493 Y98.359 E8.25369
G1 X153.207 Y98.592 E8.34429
G1 X155.955 Y98.748 E8.43584
G1 X156.45 Y98.763 E8.45231
G1 X157.627 Y98.813 E8.49149
G1 X158.129 Y98.874 E8.50831
G1 X158.615 Y99.014 E8.52513
G1 X159.072 Y99.228 E8.54192
G1 X159.491 Y99.512 E8.55875
G1 X159.859 Y99.858 E8.57555
G1 X160.169 Y100.258 E8.59238
G1 X160.411 Y100.701 E8.60917
G1 X160.581 Y101.178 E8.62602
G1 X160.69 Y101.92 E8.65096
G1 X160.7 Y102.33 E8.6646
G1 X160.7 Y107.304 E8.83004
G1 X160.691 Y108.031 E8.85422
G1 X160.645 Y108.534 E8.87102
G1 X160.52 Y109.024 E8.88784
G1 X160.319 Y109.488 E8.90466
G1 X160.048 Y109.915 E8.92148
G1 X159.713 Y110.294 E8.9383
G1 X159.323 Y110.615 E8.9551
G1 X158.887 Y110.871 E8.97192
G1 X158.416 Y111.054 E8.98872
G1 X157.922 Y111.162 E9.00554
G1 X157.303 Y111.198 E9.02617
G1 X154.578 Y111.316 E9.11688
G1 X151.826 Y111.514 E9.20865
G1 X149.128 Y111.784 E9.29884
G1 X146.384 Y112.138 E9.39086
G1 X143.676 Y112.565 E9.48204
G1 X141.028 Y113.06 E9.57164
G1 X138.336 Y113.642 E9.66324
G1 X135.657 Y114.3 E9.755
G1 X133.051 Y115.021 E9.84493
G1 X130.393 Y115.838 E9.93742
G1 X127.832 Y116.704 E10.02733
G1 X125.233 Y117.666 E10.11951
G1 X122.718 Y118.678 E10.20968
G1 X120.191 Y119.78 E10.30137
G1 X120.043 Y119.85 E10.30681
G1 X118.816 Y120.405 E10.3516
G1 X118.182 Y120.615 E10.37382
G1 X117.579 Y120.69 E10.39403
G1 X117.17 Y120.7 E10.40764
G1 X93.166 Y120.7 E11.20601
G1 X92.468 Y120.691 E11.22923
G1 X91.964 Y120.644 E11.24607
G1 X91.474 Y120.519 E11.26288
G1 X91.01 Y120.318 E11.2797
G1 X90.584 Y120.047 E11.2965
G1 X90.205 Y119.712 E11.31332
G1 X89.884 Y119.321 E11.33015
G1 X89.629 Y118.885 E11.34695
G1 X89.445 Y118.414 E11.36376
G1 X89.338 Y117.92 E11.38058
G1 X89.301 Y117.244 E11.40309
G1 X89.3 Y93.156 E12.20426
G1 X89.309 Y92.467 E12.22718
G1 X89.356 Y91.964 E12.24398
G1 X89.481 Y91.474 E12.2608
G1 X89.682 Y91.01 E12.27762
G1 X89.953 Y90.583 E12.29444
G1 X90.288 Y90.205 E12.31124
G1 F2100 E11.51124
;MESH:CamBracket.stl
G0 F3600 X93.114 Y91.835
G0 X93.114 Y93.114
G0 X95.076 Y97.323
G0 X96.06 Y98.147
G1 F2100 E12.31124
G0 F3600 X96.085 Y98.051
;TYPE:WALL-INNER
G1 F1800 X96.5 Y98.105 E12.32516
G1 X96.915 Y98.051 E12.33908
G1 X97.303 Y97.89 E12.35305
G1 X97.635 Y97.635 E12.36698
G1 X97.89 Y97.303 E12.3809
G1 X98.051 Y96.915 E12.39487
G1 X98.105 Y96.5 E12.40879
G1 X98.051 Y96.085 E12.42271
G1 X97.89 Y95.697 E12.43668
G1 X97.635 Y95.365 E12.45061
G1 X97.303 Y95.11 E12.46453
G1 X96.915 Y94.949 E12.4785
G1 X96.5 Y94.895 E12.49242
G1 X96.085 Y94.949 E12.50634
G1 X95.697 Y95.11 E12.52031
G1 X95.365 Y95.365 E12.53423
G1 X95.11 Y95.697 E12.54816
G1 X94.949 Y96.085 E12.56213
G1 X94.895 Y96.5 E12.57605
G1 X94.949 Y96.915 E12.58997
G1 X95.11 Y97.303 E12.60394
G1 X95.365 Y97.635 E12.61786
G1 X95.697 Y97.89 E12.63179
G1 X96.085 Y98.051 E12.64576
G0 F3600 X96.06 Y98.147
G0 X108.06 Y98.147
G0 X108.085 Y98.051
G1 F1800 X108.5 Y98.105 E12.65968
G1 X108.915 Y98.051 E12.6736
G1 X109.303 Y97.89 E12.68757
G1 X109.635 Y97.635 E12.70149
G1 X109.89 Y97.303 E12.71542
G1 X110.051 Y96.915 E12.72939
G1 X110.105 Y96.5 E12.74331
G1 X110.051 Y96.085 E12.75723
G1 X109.89 Y95.697 E12.7712
G1 X109.635 Y95.365 E12.78512
G1 X109.303 Y95.11 E12.79905
G1 X108.915 Y94.949 E12.81302
G1 X108.5 Y94.895 E12.82694
G1 X108.085 Y94.949 E12.84086
G1 X107.697 Y95.11 E12.85483
G1 X107.365 Y95.365 E12.86875
G1 X107.11 Y95.697 E12.88268
G1 X106.949 Y96.085 E12.89665
G1 X106.895 Y96.5 E12.91057
G1 X106.949 Y96.915 E12.92449
G1 X107.11 Y97.303 E12.93846
G1 X107.365 Y97.635 E12.95238
G1 X107.697 Y97.89 E12.96631
G1 X108.085 Y98.051 E12.98028
G0 F3600 X108.06 Y98.147
G0 X116.83 Y107.33
G0 X116.9 Y107.4
G1 F1800 X116.9 Y116.9 E13.29625
G1 X93.1 Y116.9 E14.08784
G1 X93.1 Y93.1 E14.87943
G1 X116.9 Y93.1 E15.67102
G1 X116.9 Y102.6 E15.98699
G1 X156.9 Y102.6 E17.3174
G1 X156.9 Y107.4 E17.47705
G1 X116.9 Y107.4 E18.80745
G0 F3600 X116.83 Y107.33
G0 X109.663 Y114.663
G0 X108.965 Y115.072
G0 X108.06 Y115.147
G0 X108.085 Y115.051
G1 F1800 X108.5 Y115.105 E18.82137
G1 X108.915 Y115.051 E18.83529
G1 X109.303 Y114.89 E18.84926
G1 X109.635 Y114.635 E18.86319
G1 X109.89 Y114.303 E18.87711
G1 X110.051 Y113.915 E18.89108
G1 X110.105 Y113.5 E18.905
G1 X110.051 Y113.085 E18.91892
G1 X109.89 Y112.697 E18.93289
G1 X109.635 Y112.365 E18.94682
G1 X109.303 Y112.11 E18.96074
G1 X108.915 Y111.949 E18.97471
G1 X108.5 Y111.895 E18.98863
G1 X108.085 Y111.949 E19.00255
G1 X107.697 Y112.11 E19.01652
G1 X107.365 Y112.365 E19.03045
G1 X107.11 Y112.697 E19.04437
G1 X106.949 Y113.085 E19.05834
G1 X106.895 Y113.5 E19.07226
G1 X106.949 Y113.915 E19.08618
G1 X107.11 Y114.303 E19.10015
G1 X107.365 Y114.635 E19.11408
G1 X107.697 Y114.89 E19.128
G1 X108.085 Y115.051 E19.14197
G0 F3600 X108.06 Y115.147
G0 X96.06 Y115.147
G0 X96.085 Y115.051
G1 F1800 X96.5 Y115.105 E19.15589
G1 X96.915 Y115.051 E19.16981
G1 X97.303 Y114.89 E19.18378
G1 X97.635 Y114.635 E19.19771
G1 X97.89 Y114.303 E19.21163
G1 X98.051 Y113.915 E19.2256
G1 X98.105 Y113.5 E19.23952
G1 X98.051 Y113.085 E19.25344
G1 X97.89 Y112.697 E19.26741
G1 X97.635 Y112.365 E19.28134
G1 X97.303 Y112.11 E19.29526
G1 X96.915 Y111.949 E19.30923
G1 X96.5 Y111.895 E19.32315
G1 X96.085 Y111.949 E19.33707
G1 X95.697 Y112.11 E19.35104
G1 X95.365 Y112.365 E19.36496
G1 X95.11 Y112.697 E19.37889
G1 X94.949 Y113.085 E19.39286
G1 X94.895 Y113.5 E19.40678
G1 X94.949 Y113.915 E19.4207
G1 X95.11 Y114.303 E19.43467
G1 X95.365 Y114.635 E19.44859
G1 X95.697 Y114.89 E19.46252
G1 X96.085 Y115.051 E19.47649
G0 F3600 X96.189 Y114.661
;TYPE:WALL-OUTER
G1 F1800 X96.5 Y114.702 E19.48692
G1 X96.811 Y114.661 E19.49736
G1 X97.101 Y114.541 E19.50779
G1 X97.35 Y114.35 E19.51823
G1 X97.541 Y114.101 E19.52867
G1 X97.661 Y113.811 E19.53911
G1 X97.702 Y113.5 E19.54954
G1 X97.661 Y113.189 E19.55998
G1 X97.541 Y112.899 E19.57041
G1 X97.35 Y112.65 E19.58085
G1 X97.101 Y112.459 E19.59129
G1 X96.811 Y112.339 E19.60173
G1 X96.5 Y112.298 E19.61216
G1 X96.189 Y112.339 E19.62259
G1 X95.899 Y112.459 E19.63303
G1 X95.65 Y112.65 E19.64347
G1 X95.459 Y112.899 E19.65391
G1 X95.339 Y113.189 E19.66435
G1 X95.298 Y113.5 E19.67478
G1 X95.339 Y113.811 E19.68521
G1 X95.459 Y114.101 E19.69565
G1 X95.65 Y114.35 E19.70609
G1 X95.899 Y114.541 E19.71653
G1 X96.189 Y114.661 E19.72697
G0 F3600 X96.387 Y114.687
G0 X96.323 Y115.182
G0 X108.125 Y115.156
G0 X108.189 Y114.661
G1 F1800 X108.5 Y114.702 E19.7374
G1 X108.811 Y114.661 E19.74783
G1 X109.101 Y114.541 E19.75827
G1 X109.35 Y114.35 E19.76871
G1 X109.541 Y114.101 E19.77915
G1 X109.661 Y113.811 E19.78959
G1 X109.702 Y113.5 E19.80002
G1 X109.661 Y113.189 E19.81045
G1 X109.541 Y112.899 E19.82089
G1 X109.35 Y112.65 E19.83133
G1 X109.101 Y112.459 E19.84177
G1 X108.811 Y112.339 E19.85221
G1 X108.5 Y112.298 E19.86264
G1 X108.189 Y112.339 E19.87307
G1 X107.899 Y112.459 E19.88351
G1 X107.65 Y112.65 E19.89395
G1 X107.459 Y112.899 E19.90439
G1 X107.339 Y113.189 E19.91482
G1 X107.298 Y113.5 E19.92526
G1 X107.339 Y113.811 E19.93569
G1 X107.459 Y114.101 E19.94613
G1 X107.65 Y114.35 E19.95657
G1 X107.899 Y114.541 E19.96701
G1 X108.189 Y114.661 E19.97744
G0 F3600 X108.387 Y114.687
G0 X108.323 Y115.182
G0 X109.323 Y114.924
G0 X116.8 Y107.8
G0 X117.3 Y107.8
G1 F1800 X117.3 Y117.3 E20.29342
G1 X92.7 Y117.3 E21.11161
G1 X92.7 Y92.7 E21.92981
G1 X117.3 Y92.7 E22.74801
G1 X117.3 Y102.2 E23.06398
G1 X157.3 Y102.2 E24.39439
G1 X157.3 Y107.8 E24.58065
G1 X117.3 Y107.8 E25.91105
G0 F3600 X117.3 Y108
G0 X116.8 Y108
G0 X108.125 Y98.156
G0 X108.189 Y97.661
G1 F1800 X108.5 Y97.702 E25.92149
G1 X108.811 Y97.661 E25.93192
G1 X109.101 Y97.541 E25.94236
G1 X109.35 Y97.35 E25.95279
G1 X109.541 Y97.101 E25.96323
G1 X109.661 Y96.811 E25.97367
G1 X109.702 Y96.5 E25.9841
G1 X109.661 Y96.189 E25.99454
G1 X109.541 Y95.899 E26.00498
G1 X109.35 Y95.65 E26.01541
G1 X109.101 Y95.459 E26.02585
G1 X108.811 Y95.339 E26.03629
G1 X108.5 Y95.298 E26.04672
G1 X108.189 Y95.339 E26.05716
G1 X107.899 Y95.459 E26.0676
G1 X107.65 Y95.65 E26.07803
G1 X107.459 Y95.899 E26.08847
G1 X107.339 Y96.189 E26.09891
G1 X107.298 Y96.5 E26.10934
G1 X107.339 Y96.811 E26.11978
G1 X107.459 Y97.101 E26.13022
G1 X107.65 Y97.35 E26.14065
G1 X107.899 Y97.541 E26.15109
G1 X108.189 Y97.661 E26.16153
G0 F3600 X108.387 Y97.687
G0 X108.323 Y98.182
G0 X96.125 Y98.156
G0 X96.189 Y97.661
G1 F1800 X96.5 Y97.702 E26.17196
G1 X96.811 Y97.661 E26.1824
G1 X97.101 Y97.541 E26.19283
G1 X97.35 Y97.35 E26.20327
G1 X97.541 Y97.101 E26.21371
G1 X97.661 Y96.811 E26.22415
G1 X97.702 Y96.5 E26.23458
G1 X97.661 Y96.189 E26.24502
G1 X97.541 Y95.899 E26.25545
G1 X97.35 Y95.65 E26.26589
G1 X97.101 Y95.459 E26.27633
G1 X96.811 Y95.339 E26.28677
G1 X96.5 Y95.298 E26.2972
G1 X96.189 Y95.339 E26.30763
G1 X95.899 Y95.459 E26.31807
G1 X95.65 Y95.65 E26.32851
G1 X95.459 Y95.899 E26.33895
G1 X95.339 Y96.189 E26.34939
G1 X95.298 Y96.5 E26.35982
G1 X95.339 Y96.811 E26.37025
G1 X95.459 Y97.101 E26.38069
G1 X95.65 Y97.35 E26.39113
G1 X95.899 Y97.541 E26.40157
G1 X96.189 Y97.661 E26.41201
G0 F3600 X96.387 Y97.687
G0 X96.5 Y98.499
;TYPE:SKIN
G1 F1800 X97.017 Y98.431 E26.42935
G1 X97.5 Y98.231 E26.44674
G1 X97.914 Y97.914 E26.46408
G1 X98.231 Y97.5 E26.48142
G1 X98.431 Y97.017 E26.49881
G1 X98.499 Y96.5 E26.51615
G1 X98.431 Y95.983 E26.5335
G1 X98.231 Y95.5 E26.55088
G1 X97.914 Y95.086 E26.56823
G1 X97.5 Y94.769 E26.58557
G1 X97.017 Y94.569 E26.60296
G1 X96.5 Y94.501 E26.6203
G1 X95.983 Y94.569 E26.63764
G1 X95.5 Y94.769 E26.65503
G1 X95.086 Y95.086 E26.67237
G1 X94.769 Y95.5 E26.68972
G1 X94.569 Y95.983 E26.7071
G1 X94.501 Y96.5 E26.72445
G1 X94.569 Y97.017 E26.74179
G1 X94.769 Y97.5 E26.75918
G1 X95.086 Y97.914 E26.77652
G1 X95.5 Y98.231 E26.79386
G1 X95.983 Y98.431 E26.81125
G1 X96.5 Y98.499 E26.8286
G0 F3600 X95.337 Y97.663
G0 X93.49 Y93.49
G1 F1800 X116.51 Y93.49 E27.59424
G1 X116.51 Y102.99 E27.91022
G1 X156.51 Y102.99 E29.24062
G1 X156.51 Y107.01 E29.37433
G1 X116.51 Y107.01 E30.70473
G1 X116.51 Y116.51 E31.0207
G1 X93.49 Y116.51 E31.78635
G1 X93.49 Y93.49 E32.552
G0 F3600 X106.501 Y96.5
G1 F1800 X106.569 Y97.017 E32.56934
G1 X106.769 Y97.5 E32.58673
G1 X107.086 Y97.914 E32.60407
G1 X107.5 Y98.231 E32.62142
G1 X107.983 Y98.431 E32.6388
G1 X108.5 Y98.499 E32.65615
G1 X109.017 Y98.431 E32.67349
G1 X109.5 Y98.231 E32.69088
G1 X109.914 Y97.914 E32.70822
G1 X110.231 Y97.5 E32.72556
G1 X110.431 Y97.017 E32.74295
G1 X110.499 Y96.5 E32.76029
G1 X110.431 Y95.983 E32.77764
G1 X110.231 Y95.5 E32.79503
G1 X109.914 Y95.086 E32.81237
G1 X109.5 Y94.769 E32.82971
G1 X109.017 Y94.569 E32.8471
G1 X108.5 Y94.501 E32.86444
G1 X107.983 Y94.569 E32.88179
G1 X107.5 Y94.769 E32.89917
G1 X107.086 Y95.086 E32.91652
G1 X106.769 Y95.5 E32.93386
G1 X106.569 Y95.983 E32.95125
G1 X106.501 Y96.5 E32.96859
G0 F3600 X107.086 Y112.086
G1 F1800 X106.769 Y112.5 E32.98593
G1 X106.569 Y112.983 E33.00332
G1 X106.501 Y113.5 E33.02066
G1 X106.569 Y114.017 E33.03801
G1 X106.769 Y114.5 E33.05539
G1 X107.086 Y114.914 E33.07274
G1 X107.5 Y115.231 E33.09008
G1 X107.983 Y115.431 E33.10747
G1 X108.5 Y115.499 E33.12481
G1 X109.017 Y115.431 E33.14215
G1 X109.5 Y115.231 E33.15954
G1 X109.914 Y114.914 E33.17688
G1 X110.231 Y114.5 E33.19423
G1 X110.431 Y114.017 E33.21161
G1 X110.499 Y113.5 E33.22896
G1 X110.431 Y112.983 E33.2463
G1 X110.231 Y112.5 E33.26369
G1 X109.914 Y112.086 E33.28103
G1 X109.5 Y111.769 E33.29837
G1 X109.017 Y111.569 E33.31576
G1 X108.5 Y111.501 E33.33311
G1 X107.983 Y111.569 E33.35045
G1 X107.5 Y111.769 E33.36784
G1 X107.086 Y112.086 E33.38518
G0 F3600 X96.5 Y111.501
G1 F1800 X95.983 Y111.569 E33.40252
G1 X95.5 Y111.769 E33.41991
G1 X95.086 Y112.086 E33.43725
G1 X94.769 Y112.5 E33.4546
G1 X94.569 Y112.983 E33.47198
G1 X94.501 Y113.5 E33.48933
G1 X94.569 Y114.017 E33.50667
G1 X94.769 Y114.5 E33.52406
G1 X95.086 Y114.914 E33.5414
G1 X95.5 Y115.231 E33.55874
G1 X95.983 Y115.431 E33.57613
G1 X96.5 Y115.499 E33.59347
G1 X97.017 Y115.431 E33.61082
G1 X97.5 Y115.231 E33.6282
G1 X97.914 Y114.914 E33.64555
G1 X98.231 Y114.5 E33.66289
G1 X98.431 Y114.017 E33.68028
G1 X98.499 Y113.5 E33.69762
G1 X98.431 Y112.983 E33.71496
G1 X98.231 Y112.5 E33.73235
G1 X97.914 Y112.086 E33.74969
